; generated by PrusaSlicer 2.4.0+linux-x64 on 2022-01-08 at 20:22:26 UTC

; 

; external perimeters extrusion width = 0.45mm
; perimeters extrusion width = 0.45mm
; infill extrusion width = 0.45mm
; solid infill extrusion width = 0.45mm
; top infill extrusion width = 0.40mm
; first layer extrusion width = 0.42mm

M201 X500 Y500 Z100 E5000 ; sets maximum accelerations, mm/sec^2
M203 X500 Y500 Z10 E60 ; sets maximum feedrates, mm/sec
M204 P500 R1000 T500 ; sets acceleration (P, T) and retract acceleration (R), mm/sec^2
M205 X8.00 Y8.00 Z0.40 E5.00 ; sets the jerk limits, mm/sec
M205 S0 T0 ; sets the minimum extruding and travel feed rate, mm/sec
M107
;TYPE:Custom
G90 ; use absolute coordinates
M83 ; extruder relative mode
M140 S60 ; set final bed temp
M104 S150 ; set temporary nozzle temp to prevent oozing during homing
G4 S10 ; allow partial nozzle warmup
G28 ; home all axis
G1 Z50 F240
G1 X2 Y10 F3000
M104 S210 ; set final nozzle temp
M190 S60 ; wait for bed temp to stabilize
M109 S210 ; wait for nozzle temp to stabilize
G1 Z0.28 F240
G92 E0
G1 Y140 E10 F1500 ; prime the nozzle
G1 X2.3 F5000
G92 E0
G1 Y10 E10 F1200 ; prime the nozzle
G92 E0
G21 ; set units to millimeters
G90 ; use absolute coordinates
M83 ; use relative distances for extrusion
; Filament gcode
M107
;LAYER_CHANGE
;Z:0.2
;HEIGHT:0.2
;BEFORE_LAYER_CHANGE
G92 E0
;0.2


G1 E-5 F3600
G1 Z.2 F9000
;AFTER_LAYER_CHANGE
;0.2
G1 X8.4 Y36.773
G1 E5 F2400
M204 S500
;TYPE:Skirt/Brim
;WIDTH:0.42
G1 F1200
G1 X211.6 Y36.773 E6.37119
G1 X213.183 Y37.167 E.05115
G1 X214.397 Y38.257 E.05115
G1 X214.977 Y40.15 E.06207
G1 X214.977 Y179.85 E4.3802
G1 X214.583 Y181.433 E.05115
G1 X213.493 Y182.647 E.05115
G1 X211.6 Y183.227 E.06207
G1 X8.4 Y183.227 E6.37119
G1 X6.817 Y182.833 E.05115
G1 X5.603 Y181.743 E.05115
G1 X5.023 Y179.85 E.06207
G1 X5.023 Y40.15 E4.3802
G1 X5.417 Y38.567 E.05115
G1 X6.507 Y37.353 E.05115
G1 X8.343 Y36.791 E.06019
G1 E-3.5 F3600
;WIPE_START
G1 F7200
G1 X11.343 Y36.79 E-1.425
;WIPE_END
G1 E-.075 F3600
G1 X10.264 Y41.214 F9000
G1 E5 F2400
;TYPE:Perimeter
G1 F1200
G1 X210.536 Y41.214 E6.27938
G1 X210.536 Y178.786 E4.31346
G1 X9.464 Y178.786 E6.30446
G1 X9.464 Y41.214 E4.31346
G1 X10.204 Y41.214 E.0232
G1 X9.487 Y40.837 F9000
G1 F1200
G1 X210.913 Y40.837 E6.31557
G1 X210.913 Y179.163 E4.33711
G1 X9.087 Y179.163 E6.32811
G1 X9.087 Y40.837 E4.33711
G1 X9.427 Y40.837 E.01066
G1 X8.71 Y40.46 F9000
;TYPE:External perimeter
G1 F1200
G1 X211.29 Y40.46 E6.35175
G1 X211.29 Y179.54 E4.36076
G1 X8.71 Y179.54 E6.35175
G1 X8.71 Y40.52 E4.35887
G1 X9.102 Y40.54 F9000
G1 E-3.5 F3600
;WIPE_START
G1 F7200
G1 X11.71 Y40.519 E-1.425
;WIPE_END
G1 E-.075 F3600
G1 X210.423 Y42.09 F9000
G1 E5 F2400
;TYPE:Solid infill
;WIDTH:0.420191
G1 F1200
G1 X209.83 Y41.497 E.02631
G1 X209.296 Y41.497 E.01674
G1 X210.253 Y42.454 E.04245
G1 X210.253 Y42.987 E.01674
G1 X208.763 Y41.497 E.06612
G1 X208.229 Y41.497 E.01674
G1 X210.253 Y43.521 E.08979
G1 X210.253 Y44.054 E.01674
G1 X207.696 Y41.497 E.11346
G1 X207.162 Y41.497 E.01674
G1 X210.253 Y44.588 E.13713
G1 X210.253 Y45.122 E.01674
G1 X206.628 Y41.497 E.1608
G1 X206.095 Y41.497 E.01674
G1 X210.253 Y45.655 E.18447
G1 X210.253 Y46.189 E.01674
G1 X205.561 Y41.497 E.20814
G1 X205.028 Y41.497 E.01674
G1 X210.253 Y46.722 E.23181
G1 X210.253 Y47.256 E.01674
G1 X204.494 Y41.497 E.25548
G1 X203.961 Y41.497 E.01674
G1 X210.253 Y47.789 E.27915
G1 X210.253 Y48.323 E.01674
G1 X203.427 Y41.497 E.30282
G1 X202.894 Y41.497 E.01674
G1 X210.253 Y48.856 E.32649
G1 X210.253 Y49.39 E.01674
G1 X202.36 Y41.497 E.35016
G1 X201.827 Y41.497 E.01674
G1 X210.253 Y49.923 E.37383
G1 X210.253 Y50.457 E.01674
G1 X201.293 Y41.497 E.3975
G1 X200.76 Y41.497 E.01674
G1 X210.253 Y50.99 E.42117
G1 X210.253 Y51.524 E.01674
G1 X200.226 Y41.497 E.44484
G1 X199.692 Y41.497 E.01674
G1 X210.253 Y52.058 E.46851
G1 X210.253 Y52.591 E.01674
G1 X199.159 Y41.497 E.49218
G1 X198.625 Y41.497 E.01674
G1 X210.253 Y53.125 E.51585
G1 X210.253 Y53.658 E.01674
G1 X198.092 Y41.497 E.53952
G1 X197.558 Y41.497 E.01674
G1 X210.253 Y54.192 E.56319
G1 X210.253 Y54.725 E.01674
G1 X197.025 Y41.497 E.58686
G1 X196.491 Y41.497 E.01674
G1 X210.253 Y55.259 E.61053
G1 X210.253 Y55.792 E.01674
G1 X195.958 Y41.497 E.6342
G1 X195.424 Y41.497 E.01674
G1 X210.253 Y56.326 E.65787
G1 X210.253 Y56.859 E.01674
G1 X194.891 Y41.497 E.68154
G1 X194.357 Y41.497 E.01674
G1 X210.253 Y57.393 E.70521
G1 X210.253 Y57.927 E.01674
G1 X193.823 Y41.497 E.72888
G1 X193.29 Y41.497 E.01674
G1 X210.253 Y58.46 E.75255
G1 X210.253 Y58.994 E.01674
G1 X192.756 Y41.497 E.77622
G1 X192.223 Y41.497 E.01674
G1 X210.253 Y59.527 E.79989
G1 X210.253 Y60.061 E.01674
G1 X191.689 Y41.497 E.82356
G1 X191.156 Y41.497 E.01674
G1 X210.253 Y60.594 E.84723
G1 X210.253 Y61.128 E.01674
G1 X190.622 Y41.497 E.8709
G1 X190.089 Y41.497 E.01674
G1 X210.253 Y61.661 E.89457
G1 X210.253 Y62.195 E.01674
G1 X189.555 Y41.497 E.91825
G1 X189.022 Y41.497 E.01674
G1 X210.253 Y62.728 E.94192
G1 X210.253 Y63.262 E.01674
G1 X188.488 Y41.497 E.96559
G1 X187.955 Y41.497 E.01674
G1 X210.253 Y63.795 E.98926
G1 X210.253 Y64.329 E.01674
G1 X187.421 Y41.497 E1.01293
G1 X186.887 Y41.497 E.01674
G1 X210.253 Y64.863 E1.0366
G1 X210.253 Y65.396 E.01674
G1 X186.354 Y41.497 E1.06027
G1 X185.82 Y41.497 E.01674
G1 X210.253 Y65.93 E1.08394
G1 X210.253 Y66.463 E.01674
G1 X185.287 Y41.497 E1.10761
G1 X184.753 Y41.497 E.01674
G1 X210.253 Y66.997 E1.13128
G1 X210.253 Y67.53 E.01674
G1 X184.22 Y41.497 E1.15495
G1 X183.686 Y41.497 E.01674
G1 X210.253 Y68.064 E1.17862
G1 X210.253 Y68.597 E.01674
G1 X183.153 Y41.497 E1.20229
G1 X182.619 Y41.497 E.01674
G1 X210.253 Y69.131 E1.22596
G1 X210.253 Y69.664 E.01674
G1 X182.086 Y41.497 E1.24963
G1 X181.552 Y41.497 E.01674
G1 X210.253 Y70.198 E1.2733
G1 X210.253 Y70.732 E.01674
G1 X181.018 Y41.497 E1.29697
G1 X180.485 Y41.497 E.01674
G1 X210.253 Y71.265 E1.32064
G1 X210.253 Y71.799 E.01674
G1 X179.951 Y41.497 E1.34431
G1 X179.418 Y41.497 E.01674
G1 X210.253 Y72.332 E1.36798
G1 X210.253 Y72.866 E.01674
G1 X178.884 Y41.497 E1.39165
G1 X178.351 Y41.497 E.01674
G1 X210.253 Y73.399 E1.41532
G1 X210.253 Y73.933 E.01674
G1 X177.817 Y41.497 E1.43899
G1 X177.284 Y41.497 E.01674
G1 X210.253 Y74.466 E1.46266
G1 X210.253 Y75 E.01674
G1 X176.75 Y41.497 E1.48633
G1 X176.217 Y41.497 E.01674
G1 X210.253 Y75.533 E1.51
G1 X210.253 Y76.067 E.01674
G1 X175.683 Y41.497 E1.53367
G1 X175.15 Y41.497 E.01674
G1 X210.253 Y76.6 E1.55734
G1 X210.253 Y77.134 E.01674
G1 X174.616 Y41.497 E1.58101
G1 X174.082 Y41.497 E.01674
G1 X210.253 Y77.668 E1.60468
G1 X210.253 Y78.201 E.01674
G1 X173.549 Y41.497 E1.62835
G1 X173.015 Y41.497 E.01674
G1 X210.253 Y78.735 E1.65202
G1 X210.253 Y79.268 E.01674
G1 X172.482 Y41.497 E1.67569
G1 X171.948 Y41.497 E.01674
G1 X210.253 Y79.802 E1.69936
G1 X210.253 Y80.335 E.01674
G1 X171.415 Y41.497 E1.72303
G1 X170.881 Y41.497 E.01674
G1 X210.253 Y80.869 E1.7467
G1 X210.253 Y81.402 E.01674
G1 X170.348 Y41.497 E1.77037
G1 X169.814 Y41.497 E.01674
G1 X210.253 Y81.936 E1.79404
G1 X210.253 Y82.469 E.01674
G1 X169.281 Y41.497 E1.81771
G1 X168.747 Y41.497 E.01674
G1 X210.253 Y83.003 E1.84138
G1 X210.253 Y83.537 E.01674
G1 X168.213 Y41.497 E1.86505
G1 X167.68 Y41.497 E.01674
G1 X210.253 Y84.07 E1.88872
G1 X210.253 Y84.604 E.01674
G1 X167.146 Y41.497 E1.91239
G1 X166.613 Y41.497 E.01674
G1 X210.253 Y85.137 E1.93606
G1 X210.253 Y85.671 E.01674
G1 X166.079 Y41.497 E1.95973
G1 X165.546 Y41.497 E.01674
G1 X210.253 Y86.204 E1.9834
G1 X210.253 Y86.738 E.01674
G1 X165.012 Y41.497 E2.00707
G1 X164.479 Y41.497 E.01674
G1 X210.253 Y87.271 E2.03074
G1 X210.253 Y87.805 E.01674
G1 X163.945 Y41.497 E2.05441
G1 X163.412 Y41.497 E.01674
G1 X210.253 Y88.338 E2.07808
G1 X210.253 Y88.872 E.01674
G1 X162.878 Y41.497 E2.10175
G1 X162.345 Y41.497 E.01674
G1 X210.253 Y89.405 E2.12542
G1 X210.253 Y89.939 E.01674
G1 X161.811 Y41.497 E2.14909
G1 X161.277 Y41.497 E.01674
G1 X210.253 Y90.473 E2.17276
G1 X210.253 Y91.006 E.01674
G1 X160.744 Y41.497 E2.19643
G1 X160.21 Y41.497 E.01674
G1 X210.253 Y91.54 E2.2201
G1 X210.253 Y92.073 E.01674
G1 X159.677 Y41.497 E2.24377
G1 X159.143 Y41.497 E.01674
G1 X210.253 Y92.607 E2.26744
G1 X210.253 Y93.14 E.01674
G1 X158.61 Y41.497 E2.29111
G1 X158.076 Y41.497 E.01674
G1 X210.253 Y93.674 E2.31478
G1 X210.253 Y94.207 E.01674
G1 X157.543 Y41.497 E2.33845
G1 X157.009 Y41.497 E.01674
G1 X210.253 Y94.741 E2.36212
G1 X210.253 Y95.274 E.01674
G1 X156.476 Y41.497 E2.38579
G1 X155.942 Y41.497 E.01674
G1 X210.253 Y95.808 E2.40946
G1 X210.253 Y96.342 E.01674
G1 X155.408 Y41.497 E2.43313
G1 X154.875 Y41.497 E.01674
G1 X210.253 Y96.875 E2.4568
G1 X210.253 Y97.409 E.01674
G1 X154.341 Y41.497 E2.48047
G1 X153.808 Y41.497 E.01674
G1 X210.253 Y97.942 E2.50414
G1 X210.253 Y98.476 E.01674
G1 X153.274 Y41.497 E2.52781
G1 X152.741 Y41.497 E.01674
G1 X210.253 Y99.009 E2.55148
G1 X210.253 Y99.543 E.01674
G1 X152.207 Y41.497 E2.57516
G1 X151.674 Y41.497 E.01674
G1 X210.253 Y100.076 E2.59883
G1 X210.253 Y100.61 E.01674
G1 X151.14 Y41.497 E2.6225
G1 X150.607 Y41.497 E.01674
G1 X210.253 Y101.143 E2.64617
G1 X210.253 Y101.677 E.01674
G1 X150.073 Y41.497 E2.66984
G1 X149.54 Y41.497 E.01674
G1 X210.253 Y102.21 E2.69351
G1 X210.253 Y102.744 E.01674
G1 X149.006 Y41.497 E2.71718
G1 X148.472 Y41.497 E.01674
G1 X210.253 Y103.278 E2.74085
G1 X210.253 Y103.811 E.01674
G1 X147.939 Y41.497 E2.76452
G1 X147.405 Y41.497 E.01674
G1 X210.253 Y104.345 E2.78819
G1 X210.253 Y104.878 E.01674
G1 X146.872 Y41.497 E2.81186
G1 X146.338 Y41.497 E.01674
G1 X210.253 Y105.412 E2.83553
G1 X210.253 Y105.945 E.01674
G1 X145.805 Y41.497 E2.8592
G1 X145.271 Y41.497 E.01674
G1 X210.253 Y106.479 E2.88287
G1 X210.253 Y107.012 E.01674
G1 X144.738 Y41.497 E2.90654
G1 X144.204 Y41.497 E.01674
G1 X210.253 Y107.546 E2.93021
G1 X210.253 Y108.079 E.01674
G1 X143.671 Y41.497 E2.95388
G1 X143.137 Y41.497 E.01674
G1 X210.253 Y108.613 E2.97755
G1 X210.253 Y109.147 E.01674
G1 X142.603 Y41.497 E3.00122
G1 X142.07 Y41.497 E.01674
G1 X210.253 Y109.68 E3.02489
G1 X210.253 Y110.214 E.01674
G1 X141.536 Y41.497 E3.04856
G1 X141.003 Y41.497 E.01674
G1 X210.253 Y110.747 E3.07223
G1 X210.253 Y111.281 E.01674
G1 X140.469 Y41.497 E3.0959
G1 X139.936 Y41.497 E.01674
G1 X210.253 Y111.814 E3.11957
G1 X210.253 Y112.348 E.01674
G1 X139.402 Y41.497 E3.14324
G1 X138.869 Y41.497 E.01674
G1 X210.253 Y112.881 E3.16691
G1 X210.253 Y113.415 E.01674
G1 X138.335 Y41.497 E3.19058
G1 X137.802 Y41.497 E.01674
G1 X210.253 Y113.948 E3.21425
G1 X210.253 Y114.482 E.01674
G1 X137.268 Y41.497 E3.23792
G1 X136.735 Y41.497 E.01674
G1 X210.253 Y115.015 E3.26159
G1 X210.253 Y115.549 E.01674
G1 X136.201 Y41.497 E3.28526
G1 X135.667 Y41.497 E.01674
G1 X210.253 Y116.083 E3.30893
G1 X210.253 Y116.616 E.01674
G1 X135.134 Y41.497 E3.3326
G1 X134.6 Y41.497 E.01674
G1 X210.253 Y117.15 E3.35627
G1 X210.253 Y117.683 E.01674
G1 X134.067 Y41.497 E3.37994
G1 X133.533 Y41.497 E.01674
G1 X210.253 Y118.217 E3.40361
G1 X210.253 Y118.75 E.01674
G1 X133 Y41.497 E3.42728
G1 X132.466 Y41.497 E.01674
G1 X210.253 Y119.284 E3.45095
G1 X210.253 Y119.817 E.01674
G1 X131.933 Y41.497 E3.47462
G1 X131.399 Y41.497 E.01674
G1 X210.253 Y120.351 E3.49829
G1 X210.253 Y120.884 E.01674
G1 X130.866 Y41.497 E3.52196
G1 X130.332 Y41.497 E.01674
G1 X210.253 Y121.418 E3.54563
G1 X210.253 Y121.952 E.01674
G1 X129.798 Y41.497 E3.5693
G1 X129.265 Y41.497 E.01674
G1 X210.253 Y122.485 E3.59297
G1 X210.253 Y123.019 E.01674
G1 X128.731 Y41.497 E3.61664
G1 X128.198 Y41.497 E.01674
G1 X210.253 Y123.552 E3.64031
G1 X210.253 Y124.086 E.01674
G1 X127.664 Y41.497 E3.66398
G1 X127.131 Y41.497 E.01674
G1 X210.253 Y124.619 E3.68765
G1 X210.253 Y125.153 E.01674
G1 X126.597 Y41.497 E3.71132
G1 X126.064 Y41.497 E.01674
G1 X210.253 Y125.686 E3.73499
G1 X210.253 Y126.22 E.01674
G1 X125.53 Y41.497 E3.75866
G1 X124.997 Y41.497 E.01674
G1 X210.253 Y126.753 E3.78233
G1 X210.253 Y127.287 E.01674
G1 X124.463 Y41.497 E3.806
G1 X123.93 Y41.497 E.01674
G1 X210.253 Y127.82 E3.82967
G1 X210.253 Y128.354 E.01674
G1 X123.396 Y41.497 E3.85334
G1 X122.862 Y41.497 E.01674
G1 X210.253 Y128.888 E3.87701
G1 X210.253 Y129.421 E.01674
G1 X122.329 Y41.497 E3.90068
G1 X121.795 Y41.497 E.01674
G1 X210.253 Y129.955 E3.92435
G1 X210.253 Y130.488 E.01674
G1 X121.262 Y41.497 E3.94802
G1 X120.728 Y41.497 E.01674
G1 X210.253 Y131.022 E3.97169
G1 X210.253 Y131.555 E.01674
G1 X120.195 Y41.497 E3.99536
G1 X119.661 Y41.497 E.01674
G1 X210.253 Y132.089 E4.01903
G1 X210.253 Y132.622 E.01674
G1 X119.128 Y41.497 E4.0427
G1 X118.594 Y41.497 E.01674
G1 X210.253 Y133.156 E4.06637
G1 X210.253 Y133.689 E.01674
G1 X118.061 Y41.497 E4.09004
G1 X117.527 Y41.497 E.01674
G1 X210.253 Y134.223 E4.11371
G1 X210.253 Y134.757 E.01674
G1 X116.993 Y41.497 E4.13738
G1 X116.46 Y41.497 E.01674
G1 X210.253 Y135.29 E4.16105
G1 X210.253 Y135.824 E.01674
G1 X115.926 Y41.497 E4.18472
G1 X115.393 Y41.497 E.01674
G1 X210.253 Y136.357 E4.20839
G1 X210.253 Y136.891 E.01674
G1 X114.859 Y41.497 E4.23207
G1 X114.326 Y41.497 E.01674
G1 X210.253 Y137.424 E4.25574
G1 X210.253 Y137.958 E.01674
G1 X113.792 Y41.497 E4.27941
G1 X113.259 Y41.497 E.01674
G1 X210.253 Y138.491 E4.30308
G1 X210.253 Y139.025 E.01674
G1 X112.725 Y41.497 E4.32675
G1 X112.192 Y41.497 E.01674
G1 X210.253 Y139.558 E4.35042
G1 X210.253 Y140.092 E.01674
G1 X111.658 Y41.497 E4.37409
G1 X111.125 Y41.497 E.01674
G1 X210.253 Y140.625 E4.39776
G1 X210.253 Y141.159 E.01674
G1 X110.591 Y41.497 E4.42143
G1 X110.057 Y41.497 E.01674
G1 X210.253 Y141.693 E4.4451
G1 X210.253 Y142.226 E.01674
G1 X109.524 Y41.497 E4.46877
G1 X108.99 Y41.497 E.01674
G1 X210.253 Y142.76 E4.49244
G1 X210.253 Y143.293 E.01674
G1 X108.457 Y41.497 E4.51611
G1 X107.923 Y41.497 E.01674
G1 X210.253 Y143.827 E4.53978
G1 X210.253 Y144.36 E.01674
G1 X107.39 Y41.497 E4.56345
G1 X106.856 Y41.497 E.01674
G1 X210.253 Y144.894 E4.58712
G1 X210.253 Y145.427 E.01674
G1 X106.323 Y41.497 E4.61079
G1 X105.789 Y41.497 E.01674
G1 X210.253 Y145.961 E4.63446
G1 X210.253 Y146.494 E.01674
G1 X105.256 Y41.497 E4.65813
G1 X104.722 Y41.497 E.01674
G1 X210.253 Y147.028 E4.6818
G1 X210.253 Y147.562 E.01674
G1 X104.188 Y41.497 E4.70547
G1 X103.655 Y41.497 E.01674
G1 X210.253 Y148.095 E4.72914
G1 X210.253 Y148.629 E.01674
G1 X103.121 Y41.497 E4.75281
G1 X102.588 Y41.497 E.01674
G1 X210.253 Y149.162 E4.77648
G1 X210.253 Y149.696 E.01674
G1 X102.054 Y41.497 E4.80015
G1 X101.521 Y41.497 E.01674
G1 X210.253 Y150.229 E4.82382
G1 X210.253 Y150.763 E.01674
G1 X100.987 Y41.497 E4.84749
G1 X100.454 Y41.497 E.01674
G1 X210.253 Y151.296 E4.87116
G1 X210.253 Y151.83 E.01674
G1 X99.92 Y41.497 E4.89483
G1 X99.387 Y41.497 E.01674
G1 X210.253 Y152.363 E4.9185
G1 X210.253 Y152.897 E.01674
G1 X98.853 Y41.497 E4.94217
G1 X98.32 Y41.497 E.01674
G1 X210.253 Y153.43 E4.96584
G1 X210.253 Y153.964 E.01674
G1 X97.786 Y41.497 E4.98951
G1 X97.252 Y41.497 E.01674
G1 X210.253 Y154.498 E5.01318
G1 X210.253 Y155.031 E.01674
G1 X96.719 Y41.497 E5.03685
G1 X96.185 Y41.497 E.01674
G1 X210.253 Y155.565 E5.06052
G1 X210.253 Y156.098 E.01674
G1 X95.652 Y41.497 E5.08419
G1 X95.118 Y41.497 E.01674
G1 X210.253 Y156.632 E5.10786
G1 X210.253 Y157.165 E.01674
G1 X94.585 Y41.497 E5.13153
G1 X94.051 Y41.497 E.01674
G1 X210.253 Y157.699 E5.1552
G1 X210.253 Y158.232 E.01674
G1 X93.518 Y41.497 E5.17887
G1 X92.984 Y41.497 E.01674
G1 X210.253 Y158.766 E5.20254
G1 X210.253 Y159.299 E.01674
G1 X92.451 Y41.497 E5.22621
G1 X91.917 Y41.497 E.01674
G1 X210.253 Y159.833 E5.24988
G1 X210.253 Y160.367 E.01674
G1 X91.383 Y41.497 E5.27355
G1 X90.85 Y41.497 E.01674
G1 X210.253 Y160.9 E5.29722
G1 X210.253 Y161.434 E.01674
G1 X90.316 Y41.497 E5.32089
G1 X89.783 Y41.497 E.01674
G1 X210.253 Y161.967 E5.34456
G1 X210.253 Y162.501 E.01674
G1 X89.249 Y41.497 E5.36823
G1 X88.716 Y41.497 E.01674
G1 X210.253 Y163.034 E5.3919
G1 X210.253 Y163.568 E.01674
G1 X88.182 Y41.497 E5.41557
G1 X87.649 Y41.497 E.01674
G1 X210.253 Y164.101 E5.43924
G1 X210.253 Y164.635 E.01674
G1 X87.115 Y41.497 E5.46291
G1 X86.582 Y41.497 E.01674
G1 X210.253 Y165.168 E5.48658
G1 X210.253 Y165.702 E.01674
G1 X86.048 Y41.497 E5.51025
G1 X85.515 Y41.497 E.01674
